!!!OTL: Wiegenlied am Christkripplein
!!!ARE: Europa, Mitteleuropa, Deutschland
!!!SCT: A0525
!!!YEM: Copyright 1995, estate of Helmut Schaffrath.
**kern
*ICvox
*Ivox
*M3/1
*k[b-]
*F:
{1a
=1
0a
1f
=2
1cc
1b-
1g
=3
1f
1g
1a
=4
0.f}
=5
{0.cc
=6
0.a
=7
0.cc
=8
0.a}
=9
{1f
1g
1a
=10
1cc
1b-
1a
=11
0f
1e
=12
0f}
{1cc
=13
0cc
1b-
=14
0a
1dd
=15
1cc
1b-
1a
=16
0g}
{1cc
=17
1g
1a
1b-
=18
0cc
1f
=19
0f
1e
=20
0f}
{1b-
=21
1b-
1a
1g
=22
1a
1b-
1cc
=23
0g
1a
=24
0f}
==
!!!AGN: Romanze, Ballade, Lied, religioeses Lied
!! Paderborner Gsgb 1609 S. 33
!!!ONB: ESAC (Essen Associative Code) Database: ALTDEU
!!!AMT: simple triple
!!!AIN: vox
!!!EED: Helmut Schaffrath
!!!EEV: 1.0
*-
